public/images/logos/columbus-blue-jackets.svg

<svg viewBox="0 0 24 16" xmlns="http://www.w3.org/2000/svg"><g fill="#002654"><path d="m16.885 11.849c-.174 0-.313.141-.313.315 0 .173.14.312.313.312.175 0 .314-.14.314-.312 0-.174-.139-.315-.314-.315zm0 .561c-.137 0-.246-.111-.246-.246 0-.138.109-.248.246-.248.138 0 .248.11.248.248 0 .135-.112.246-.248.246z"/><path d="m17.016 12.091c0-.059-.049-.106-.106-.106h-.152v.358h.068v-.146h.047l.068.146h.075l-.072-.151c.04-.016.072-.055.072-.101zm-.109.038h-.084v-.078h.084c.021 0 .038.018.038.04 0 .02-.015.038-.038.038z"/></g><path d="m17.299 11.285 3.374-7.764s-2.441 1.446-5.23 2.551l4.793-3.563-3.017.519c-.433-.259-1.934-1.036-4.357-1.036 0 0-.213.005-.394.01-.09-.263-.511-1.502-.511-1.502l-.773 1.603c-4.418.568-7.857 3.178-7.857 5.994 0 1.259.54 2.913 3.026 3.808l-1.254 3.1 3.318-2.617c.713.097 1.503.146 2.356.146.997 0 1.978-.076 2.92-.221l3.631 3.188-1.239-3.737c0-.001.729-.238 1.214-.479z" fill="#a4a9ad"/><path d="m20.05 4.223s-2.845 1.656-6.014 2.751l-.111-.308 5.435-3.769-6.04 1.546 3.379-1.362s-1.43-.799-3.837-.799c-.2 0-.401.005-.602.014l-.35-1.027-1.88 3.898-2.869.817 2.664-1.093.874-1.78.183-.373.158-.324c-4.01.575-7.42 2.965-7.42 5.683 0 1.523.838 2.919 3.133 3.637l-1.186 2.585 2.763-2.237c.715.104 1.526.159 2.442.159 1.147 0 2.158-.097 3.013-.235l3.064 2.722-1.145-3.152c.891-.262 1.369-.502 1.369-.502z" fill="#002654"/><path d="m15.708 3.054s-1.137-.553-3.354-.481l.101.3c.246-.028 1.581-.155 3.253.181zm-3.253 7.273c-1.297-.245-2.073-.496-2.073-.496s.599-.231 1.483-.638c.791-.363 1.809-.864 2.832-1.463.823-.481 1.648-1.024 2.361-1.61 0 0-4.15 2.265-7.597 2.265-2.317 0-3.387-1.075-3.387-1.795 0-2.146 3.778-3.257 4.625-3.479l.183-.373c-3.632.715-4.982 2.141-4.982 2.141s-1.214.734-1.674 2.097c-.107.317-.173.67-.173 1.054 0 1.642 1.075 3.787 6.589 3.787 3.913 0 5.995-1.037 5.995-1.037-.676-.019-1.314-.063-1.906-.124-.866-.087-1.635-.208-2.276-.329z" fill="#ce1126"/><path d="m8.526 7.868.237-.516-1.387-.382s-.395.704 1.15.898z" fill="#a4a9ad"/><path d="m17.002 4.018-4.419 1.071-.778-2.433-1.233 2.943-3.353.838 2.347.574-.45.9c.04.001.083.002.125.003.055.001.113.002.173.002.161 0 .326-.006.493-.016.409-.024.833-.078 1.265-.155.329-.058.662-.131.996-.214.441-.109.886-.238 1.326-.378l-.254-.677zm-1.741 7.833c-.117.044-.214.085-.293.15-.074.06-.132.143-.174.269-.015.046-.026.096-.038.151l1.025.809zm-7.943.057c-.03-.01-.062-.02-.098-.022-.026-.006-.057-.009-.087-.01l-.558 1.114 1.047-.78c-.067-.121-.144-.246-.304-.302z" fill="#a4a9ad"/><g fill="#fff"><path d="m8.763 9.595c1.367 0 2.51-.245 3.103-.401.791-.363 1.809-.864 2.832-1.463-.859.326-3.579 1.295-5.506 1.295-2.922 0-3.836-1.693-3.836-2.648 0-.854.546-1.499.546-1.499s-1.008.703-1.008 1.875c-.001 1.929 1.924 2.841 3.869 2.841z"/><path d="m9.887 10.497c-5.431 0-5.673-2.894-5.661-3.521-.107.317-.173.67-.173 1.054 0 0 .056 3.201 6.262 3.201 2.019 0 3.839-.426 4.416-.575-.865-.087-1.635-.208-2.276-.329-.431.068-1.288.17-2.568.17zm6.835-2.321c-.177-.371-.692-.435-1.151-.144-.459.292-.69.826-.515 1.196.177.372.69.436 1.15.145.461-.293.69-.826.516-1.197z"/><path d="m12.125 9.558-.004-.131-.115.143-.179.024.112.059-.112.146.191-.1.131.095-.024-.156.178-.1zm1.378-.654-.003-.133-.119.148-.189.024.116.063-.116.149.2-.102.135.098-.022-.161.183-.105zm1.002.108-.004-.123-.107.134-.17.023.105.058-.105.135.178-.093.125.088-.019-.145.166-.097zm-1.384.752v-.121l-.109.131-.17.018.103.062-.108.132.182-.09.122.092-.018-.147.169-.092zm.993.138-.001-.123-.112.134-.169.019.104.059-.108.135.183-.092.12.094-.017-.149.169-.091zm.82-1.86-.006-.155-.136.171-.216.027.134.074-.134.173.229-.119.158.113-.028-.187.211-.121zm1.351-.803-.123.226.257-.172.231.119-.084-.221.237-.172-.266.053-.047-.186-.129.223-.265.057zm2.153-1.11-.319.037-.026-.236-.184.26-.32.043.212.111-.178.266.328-.183.252.173-.065-.284zm-1.686 3.891v-.187l-.172.204-.261.027.16.092-.167.208.279-.139.19.14-.027-.225.26-.143zm.5-1.232-.004-.172-.154.19-.24.033.149.08-.149.192.254-.132.178.126-.031-.207.234-.136zm.43-1.213-.006-.186-.166.206-.26.034.161.088-.161.211.276-.144.191.137-.033-.226.256-.148zm-2.315 2.309-.127.154-.196.019.119.071-.124.155.209-.106.143.106-.022-.169.193-.105-.194.015zm-3.562-6.814-.633 2.873 1.241-.805zm4.478 1.322-5.111 1.552s1.878.41 1.935.417c.058.008 3.176-1.969 3.176-1.969z"/><path d="m12.169 7.532-.996-1.589v1.803c.328-.059.661-.131.996-.214zm-2.928.382c.055.001.113.002.173.002.161 0 .326-.006.493-.016l1.265-1.958-1.484 1.095z"/><path d="m10.636 5.649-2.756.744 3.292-.45zm4.158 6.622.681.537-.507-.808c-.074.062-.132.145-.174.271zm-7.999.448.522-.811c-.03-.01-.062-.02-.098-.022z"/></g><path d="m15.64 8.138c-.375.236-.571.678-.438.986.13.308.54.367.913.13.375-.236.569-.677.439-.985-.134-.309-.542-.367-.914-.131z" fill="#ce1126"/></svg>

<svg xmlns="http://www.w3.org/2000/svg" viewBox="0 0 24 16"><g fill="#002654"><path d="M16.885,11.849c-0.174,0-0.313,0.141-0.313,0.315c0,0.173,0.14,0.312,0.313,0.312 c0.175,0,0.314-0.14,0.314-0.312C17.199,11.99,17.06,11.849,16.885,11.849z M16.885,12.41c-0.137,0-0.246-0.111-0.246-0.246 c0-0.138,0.109-0.248,0.246-0.248c0.138,0,0.248,0.11,0.248,0.248C17.133,12.299,17.021,12.41,16.885,12.41z"/><path d="M17.016,12.091c0-0.059-0.049-0.106-0.106-0.106h-0.152v0.358h0.068v-0.146h0.047l0.068,0.146h0.075 l-0.072-0.151C16.984,12.176,17.016,12.137,17.016,12.091z M16.907,12.129h-0.084v-0.078h0.084c0.021,0,0.038,0.018,0.038,0.04 C16.945,12.111,16.93,12.129,16.907,12.129z"/></g><path fill="#a4a9ad" d="M17.299,11.285l3.374-7.764c0,0-2.441,1.446-5.23,2.551l4.793-3.563l-3.017,0.519 c-0.433-0.259-1.934-1.036-4.357-1.036c0,0-0.213,0.005-0.394,0.01C12.378,1.739,11.957,0.5,11.957,0.5l-0.773,1.603 C6.766,2.671,3.327,5.281,3.327,8.097c0,1.259,0.54,2.913,3.026,3.808l-1.254,3.1l3.318-2.617 c0.713,0.097,1.503,0.146,2.356,0.146c0.997,0,1.978-0.076,2.92-0.221l3.631,3.188l-1.239-3.737 C16.085,11.763,16.814,11.526,17.299,11.285z"/><path fill="#002654" d="M20.05,4.223c0,0-2.845,1.656-6.014,2.751l-0.111-0.308l5.435-3.769l-6.04,1.546l3.379-1.362 c0,0-1.43-0.799-3.837-0.799c-0.2,0-0.401,0.005-0.602,0.014l-0.35-1.027l-1.88,3.898L7.161,5.984l2.664-1.093l0.874-1.78 l0.183-0.373l0.158-0.324C7.03,2.989,3.62,5.379,3.62,8.097c0,1.523,0.838,2.919,3.133,3.637l-1.186,2.585l2.763-2.237 c0.715,0.104,1.526,0.159,2.442,0.159c1.147,0,2.158-0.097,3.013-0.235l3.064,2.722l-1.145-3.152 c0.891-0.262,1.369-0.502,1.369-0.502L20.05,4.223z"/><path fill="#ce1126" d="M15.708 3.054c0 0-1.137-.553-3.354-.481l.101.3C12.701 2.845 14.036 2.718 15.708 3.054zM12.455 10.327c-1.297-.245-2.073-.496-2.073-.496s.599-.231 1.483-.638c.791-.363 1.809-.864 2.832-1.463.823-.481 1.648-1.024 2.361-1.61 0 0-4.15 2.265-7.597 2.265-2.317 0-3.387-1.075-3.387-1.795 0-2.146 3.778-3.257 4.625-3.479l.183-.373C7.25 3.453 5.9 4.879 5.9 4.879S4.686 5.613 4.226 6.976C4.119 7.293 4.053 7.646 4.053 8.03c0 1.642 1.075 3.787 6.589 3.787 3.913 0 5.995-1.037 5.995-1.037-.676-.019-1.314-.063-1.906-.124C13.865 10.569 13.096 10.448 12.455 10.327z"/><path fill="#a4a9ad" d="M8.526,7.868l0.237-0.516L7.376,6.97C7.376,6.97,6.981,7.674,8.526,7.868z"/><g fill="#a4a9ad"><path d="M17.002 4.018l-4.419 1.071-.778-2.433-1.233 2.943L7.219 6.437l2.347.574-.45.9c.04.001.083.002.125.003.055.001.113.002.173.002.161 0 .326-.006.493-.016.409-.024.833-.078 1.265-.155.329-.058.662-.131.996-.214.441-.109.886-.238 1.326-.378L13.24 6.476 17.002 4.018zM15.261 11.851c-.117.044-.214.085-.293.15-.074.06-.132.143-.174.269-.015.046-.026.096-.038.151l1.025.809L15.261 11.851zM7.318 11.908c-.03-.01-.062-.02-.098-.022-.026-.006-.057-.009-.087-.01L6.575 12.99l1.047-.78C7.555 12.089 7.478 11.964 7.318 11.908z"/></g><g fill="#fff"><path d="M8.763,9.595c1.367,0,2.51-0.245,3.103-0.401c0.791-0.363,1.809-0.864,2.832-1.463 c-0.859,0.326-3.579,1.295-5.506,1.295c-2.922,0-3.836-1.693-3.836-2.648c0-0.854,0.546-1.499,0.546-1.499 S4.894,5.582,4.894,6.754C4.893,8.683,6.818,9.595,8.763,9.595z"/><path d="M9.887 10.497c-5.431 0-5.673-2.894-5.661-3.521C4.119 7.293 4.053 7.646 4.053 8.03c0 0 .056 3.201 6.262 3.201 2.019 0 3.839-.426 4.416-.575-.865-.087-1.635-.208-2.276-.329C12.024 10.395 11.167 10.497 9.887 10.497zM16.722 8.176c-.177-.371-.692-.435-1.151-.144-.459.292-.69.826-.515 1.196.177.372.69.436 1.15.145C16.667 9.08 16.896 8.547 16.722 8.176z"/><path d="M12.125 9.558L12.121 9.427 12.006 9.57 11.827 9.594 11.939 9.653 11.827 9.799 12.018 9.699 12.149 9.794 12.125 9.638 12.303 9.538zM13.503 8.904L13.5 8.771 13.381 8.919 13.192 8.943 13.308 9.006 13.192 9.155 13.392 9.053 13.527 9.151 13.505 8.99 13.688 8.885zM14.505 9.012L14.501 8.889 14.394 9.023 14.224 9.046 14.329 9.104 14.224 9.239 14.402 9.146 14.527 9.234 14.508 9.089 14.674 8.992zM13.121 9.764L13.121 9.643 13.012 9.774 12.842 9.792 12.945 9.854 12.837 9.986 13.019 9.896 13.141 9.988 13.123 9.841 13.292 9.749zM14.114 9.902L14.113 9.779 14.001 9.913 13.832 9.932 13.936 9.991 13.828 10.126 14.011 10.034 14.131 10.128 14.114 9.979 14.283 9.888zM14.934 8.042L14.928 7.887 14.792 8.058 14.576 8.085 14.71 8.159 14.576 8.332 14.805 8.213 14.963 8.326 14.935 8.139 15.146 8.018zM16.285 7.239L16.162 7.465 16.419 7.293 16.65 7.412 16.566 7.191 16.803 7.019 16.537 7.072 16.49 6.886 16.361 7.109 16.096 7.166zM18.438 6.129L18.119 6.166 18.093 5.93 17.909 6.19 17.589 6.233 17.801 6.344 17.623 6.61 17.951 6.427 18.203 6.6 18.138 6.316zM16.752 10.02L16.752 9.833 16.58 10.037 16.319 10.064 16.479 10.156 16.312 10.364 16.591 10.225 16.781 10.365 16.754 10.14 17.014 9.997zM17.252 8.788L17.248 8.616 17.094 8.806 16.854 8.839 17.003 8.919 16.854 9.111 17.108 8.979 17.286 9.105 17.255 8.898 17.489 8.762zM17.682 7.575L17.676 7.389 17.51 7.595 17.25 7.629 17.411 7.717 17.25 7.928 17.526 7.784 17.717 7.921 17.684 7.695 17.94 7.547zM15.367 9.884L15.24 10.038 15.044 10.057 15.163 10.128 15.039 10.283 15.248 10.177 15.391 10.283 15.369 10.114 15.562 10.009 15.368 10.024zM11.805 3.07L11.172 5.943 12.413 5.138zM16.283 4.392l-5.111 1.552c0 0 1.878.41 1.935.417C13.165 6.369 16.283 4.392 16.283 4.392z"/><path d="M12.169 7.532l-.996-1.589v1.803C11.501 7.687 11.834 7.615 12.169 7.532zM9.241 7.914c.055.001.113.002.173.002.161 0 .326-.006.493-.016l1.265-1.958L9.688 7.037 9.241 7.914z"/><path d="M10.636 5.649L7.88 6.393 11.172 5.943zM14.794 12.271l.681.537-.507-.808C14.894 12.062 14.836 12.145 14.794 12.271zM6.795 12.719l.522-.811c-.03-.01-.062-.02-.098-.022L6.795 12.719z"/></g><path fill="#ce1126" d="M15.64,8.138c-0.375,0.236-0.571,0.678-0.438,0.986c0.13,0.308,0.54,0.367,0.913,0.13 c0.375-0.236,0.569-0.677,0.439-0.985C16.42,7.96,16.012,7.902,15.64,8.138z"/></svg>
